X:1
T:A Man Without Love
C:Cyril Ornadel
Z:All Rights Reserved
L:1/8
M:4/4
K:Bb
V:1 treble nm=""A Man Without Love"" snm=""A Man Without Love""
%%MIDI program 11
V:1
"Fmaj7" z8"_GUITAR" |"Dmaj7" d4 z2 d^c | d^c dc d2 =e2 | ^f4 z2 _g=f | _gf gf ^f2 =g2 |"A7" a6 z2 | %6
w: ||||||
"Gmaj7" a<=b a2 ga g=e |"D " ^f6 z2 |"Gmaj7" (3a2 =b2 a2 ga g=e |"D " (3^F2 F2 F2 F2 A2 | %10
w: |||I can re- mem- ber|
 ^F4 (3A,2 D2 F2 |"Emin" G2- (3GA^F =E4- |"A7" E8 |"Emin" (3G2 G2 G2 G2 A2 | %14
w: when we walked to-|ge- * * * ther||shar- ing a love I|
"A7" ^c4"Amaj7" (3=B2 A2 ^G2 |"Dmaj7" A2- AG ^F4- | F8 |"D " (3^F2 F2 F2 F2 A2 | ^F4 (3A,2 D2 F2 | %19
w: thought would last for-|e\- * * ver,||moon- light to show the|way so we can|
"Emin" G2- (3GA^F =E4- |"A7" E8 |"Emin" (3G2 G2 G2 G2 A2 |"A7" ^c4 (3=B2 A2 ^G2 |"D " A2- AG ^F4- | %24
w: fol- * * * low,||wait- ing in- side her|eyes was my to-|mor- * * row.|
 F8 |"Ebmaj7" (3G2 G2 G2 G2- GB |"Abmaj7" G4 (3B,2 E2 _A2 |"Fmin" G4"Bb7" F4- | F8 | %29
w: |Then some- thing changed * her|mind her kis- ses|told me,||
"Fmin7" (3_A2 A2 A2 A2 B2 |"Bb7" d4 d4 |"Bb " e4"Bb7" f4 |"Eb " ee ee e2 g2 |"Ebmaj7" dd dd d2 f2 | %34
w: I had no lov- ing|arms to|hold me.|E\- very day I wake up|then I start to break up|
"Cmin" cc cd e2 dc |"Fmin" _A6 z2 |"Bb " dd dd d2 f2 |"Fmin7" cc cc c2 e2 | %38
w: lone- ly is a man with- out|love.|E\- very day I start out|then I cry my heart out|
"Bb7" BB BB (3:2:2f2 e- ed |"Eb " e8 | ee ee e2 g2 |"Ebmaj7" dd dd d2 f2 |"Cmin" cc cd e2 dc | %43
w: lone- ly is a man with- * out|love.|E\- very day I wake up|then I start to break up|know- ing that it's clou- dy a\-|
"Fmin" _A6 z2 |"Bb " dd dd d2 f2 |"Fmin7" cc cc c2 e2 |"Bb7" BB BB (3:2:2f2 e- ed |"Eb " e8- | %48
w: bove.|E\- very day I start out|then I cry my heart out|lone- ly is a man with- * out|love.|
"Cmin" e8 |"Ebmaj7" z8 |"D " z8 | (3^F2 F2 F2 F3 A | ^F4 A,2 DF |"Emin" G3 ^F =E4- |"A7" E8 | %55
w: |||I can- not face this|world that's fal- ling|down on me,||
"Emin" (3G2 G2 G2 G2 A2 |"A7" ^c4-"Amaj7" c=B A^G |"Dmaj7" =BA- AG ^F4- |"D " F8 | %59
w: so if you see my|girl * please send her|ho- me * to me.||
"Ebmaj7" (3G2 G2 G2 G2 B2 |"Abmaj7" G4 (3B,2 E2 _A2 |"Fmin" G4"Bb7" F4- | F8 | %63
w: Tell her a\- bout my|heart that's slow- ly|dy- ing,||
"Fmin7" (3_A2 A2 A2 A2 B2 |"Bb7" d4 d4 |"Bb " e4"Bb7" f4 |"Eb " ee ee e2 g2 |"Ebmaj7" dd dd d2 f2 | %68
w: say I can't stop my-|self from|cry- ing.|E\- very day I wake up|then I start to break up|
"Cmin" cc cd e2 dc |"Fmin" _A6 z2 |"Bb " dd dd d2 f2 |"Fmin7" cc cc c2 e2 | %72
w: lone- ly is a man with- out|love.|E\- very day I start out|then I cry my heart out|
"Bb7" BB BB (3:2:2f2 e- ed |"Eb " e8 | ee ee e2 g2 |"Ebmaj7" dd dd d2 f2 |"Cmin" cc cd e2 dc | %77
w: lone- ly is a man with- * out|love.|E\- very day I wake up|then I start to break up|know- ing that it's clou- dy a\-|
"Fmin" _A6 z2 |"Bb " dd dd d2 f2 |"Fmin7" cc cc c2 e2 |"Bb7" BB BB (3:2:2f2 e- ed |"Eb " e8 | %82
w: bove.|E\- very day I start out|then I cry my heart out|lone- ly is a man with- * out|love.|
 ee ee e2 g2 |"Ebmaj7" dd dd d2 f2 |"Cmin" cc cd e2 dc |"Fmin" _A6 z2 |"Bb " dd dd d2 f2 | %87
w: E\- very day I wake up|then I start to break up|lone- ly is a man with- out|love.|E\- very day I start out|
"Fmin7" cc cc c2 e2 |"Bb7" BB BB f4- | f4 g4 | g4"Eb " fe- e2- | e8 |"Ebmaj7" d8 |"Ab " c6 z B/c/ | %94
w: then I cry my heart out|lone- ly is a man|* with-|out lo- ve *||||
"Eb " B8- |"Bb7" B8- |"Eb " B8 |] %97
w: |||

